proprietary/assets/icons/vervoersmiddelen/persoon-loopt-naar-trein.svg

<svg height="64" viewBox="0 0 64 64" width="64" xmlns="http://www.w3.org/2000/svg"><path d="m0 0h64v64h-64z" fill="none"/><path d="m12.5346 22.9523c1.7855.2931 3.0239-.7875 3.3193-2.588.3367-2.0507-.5626-3.3276-2.3015-3.6132-1.8318-.3006-3.0319.8376-3.3356 2.6882-.3202 1.9503.5327 3.2199 2.3178 3.513z"/><path d="m16.6278 36.2425c1.4868 1.567 3.0523.8837 3.3722.7161-2.8167-3.7662-3.2684-3.0765-4.2145-6.46-.0881-.3148-1.0448-3.9828-1.121-4.2128-.4007-1.2093-4.1246-2.8863-6.2798-1.6021-1.1857.7066-3.4156 2.3648-4.5458 3.6033-.6867.7618-.9641 1.2205-1.2586 2.8922-.1793 1.0541-.2944 2.2732-.3157 3.334-.0237 1.1785.6 2.2938 1.8351 2.551.2661-2.0136.6866-5.0228 1.3317-6.3281.2626-.5314 1.4521-1.3253 1.9492-1.6483-.316 1.4655-1.3757 6.3529-1.3757 7.4721 0 1.384.8641 2.1028 1.435 2.7009l2.2314 2.3378s-.0149.292-.4269.1088c-1.0521-.4679-2.2015-1.0251-2.2015-1.0251-.4322 1.6298-1.0426 3.9637-1.8049 5.2672-.7179 1.2275-1.6444 2.468-2.441 3.8615-1.3101 2.2912.274 3.974.4962 4.189 1.2874-1.8083 3.5063-4.4818 4.7577-6.3638.9746-1.4463 1.704-3.1486 2.4816-5.0748.3975.363 2.1544 2.0762 2.4305 2.597.0003.0006 3.0501 6.9559 3.0505 6.9567.7671 1.8298 2.8981 2.0092 3.4959 1.8281-.2537-1.0026-2.5649-9.8102-3.657-11.6052-.8017-1.3176-2.6472-3.6616-3.6101-4.8665.331-1.736.8141-3.8817 1.2665-5.7993.8422 2.6225 1.2126 2.5611 3.119 4.5703z"/><path d="m48.9774 55.8874 1.0224 5.1126h6l-1.9941-6.647c-1.4589.6449-3.1242 1.1675-5.0283 1.5344z"/><path d="m27.9998 61h6l1.0225-5.1126c-1.9041-.3669-3.5695-.8895-5.0284-1.5344z"/><path d="m61.3182 12.9727c-1.4688-2.8999-4.7461-9.1636-5.9922-9.8658-1.5801-.8896-8.1904-1.1069-13.3262-1.1069-5.1367 0-11.7461.2173-13.3262 1.1069-1.247.7022-4.5234 6.9659-5.9922 9.8658-.4882.9653-.7197 2.0512-.6767 3.1552l.8955 22.9971c.5078 13.0649 11.6914 14.875 19.0996 14.875s18.5918-1.8101 19.0996-14.875l.8955-22.9971c.0431-1.104-.1884-2.1899-.6767-3.1552zm-19.3184-6.1227c1.7401 0 3.15 1.4104 3.15 3.15 0 1.7395-1.4099 3.15-3.15 3.15s-3.15-1.4105-3.15-3.15c.0001-1.7396 1.41-3.15 3.15-3.15zm-9 36.3c-1.7401 0-3.15-1.4105-3.15-3.15 0-1.7396 1.4099-3.15 3.15-3.15s3.15 1.4104 3.15 3.15c0 1.7395-1.4099 3.15-3.15 3.15zm18 0c-1.7401 0-3.15-1.4105-3.15-3.15 0-1.7396 1.4099-3.15 3.15-3.15s3.15 1.4104 3.15 3.15c0 1.7395-1.4099 3.15-3.15 3.15zm5.6016-25.8561-3.3848 11c-.1288.42-.5166.7061-.9551.7061h-20.5233c-.4385 0-.8262-.2861-.9551-.7061l-3.3848-11c-.1983-.643.2832-1.2939.955-1.2939h27.293c.6719 0 1.1533.6509.9551 1.2939z"/></svg>

<?xml version="1.0" encoding="utf-8"?>
<!-- Generator: Adobe Illustrator 17.1.0, SVG Export Plug-In . SVG Version: 6.00 Build 0)  -->
<svg version="1.2" baseProfile="tiny" xmlns="http://www.w3.org/2000/svg" xmlns:xlink="http://www.w3.org/1999/xlink" x="0px"
	 y="0px" width="64px" height="64px" viewBox="0 0 64 64" xml:space="preserve">
<g id="Box">
	<rect fill="none" width="64" height="64"/>
</g>
<g id="Icon">
	<g>
		<path d="M12.5346,22.9523c1.7855,0.2931,3.0239-0.7875,3.3193-2.588c0.3367-2.0507-0.5626-3.3276-2.3015-3.6132
			c-1.8318-0.3006-3.0319,0.8376-3.3356,2.6882C9.8966,21.3896,10.7495,22.6592,12.5346,22.9523z"/>
		<path d="M16.6278,36.2425c1.4868,1.567,3.0523,0.8837,3.3722,0.7161c-2.8167-3.7662-3.2684-3.0765-4.2145-6.46
			c-0.0881-0.3148-1.0448-3.9828-1.121-4.2128c-0.4007-1.2093-4.1246-2.8863-6.2798-1.6021
			c-1.1857,0.7066-3.4156,2.3648-4.5458,3.6033c-0.6867,0.7618-0.9641,1.2205-1.2586,2.8922
			c-0.1793,1.0541-0.2944,2.2732-0.3157,3.334c-0.0237,1.1785,0.6,2.2938,1.8351,2.551c0.2661-2.0136,0.6866-5.0228,1.3317-6.3281
			c0.2626-0.5314,1.4521-1.3253,1.9492-1.6483c-0.316,1.4655-1.3757,6.3529-1.3757,7.4721c0,1.384,0.8641,2.1028,1.435,2.7009
			l2.2314,2.3378c0,0-0.0149,0.292-0.4269,0.1088c-1.0521-0.4679-2.2015-1.0251-2.2015-1.0251
			c-0.4322,1.6298-1.0426,3.9637-1.8049,5.2672c-0.7179,1.2275-1.6444,2.468-2.441,3.8615C1.4869,52.1022,3.071,53.785,3.2932,54
			c1.2874-1.8083,3.5063-4.4818,4.7577-6.3638c0.9746-1.4463,1.704-3.1486,2.4816-5.0748c0.3975,0.363,2.1544,2.0762,2.4305,2.597
			c0.0003,0.0006,3.0501,6.9559,3.0505,6.9567c0.7671,1.8298,2.8981,2.0092,3.4959,1.8281
			c-0.2537-1.0026-2.5649-9.8102-3.657-11.6052c-0.8017-1.3176-2.6472-3.6616-3.6101-4.8665
			c0.331-1.736,0.8141-3.8817,1.2665-5.7993C14.351,34.2947,14.7214,34.2333,16.6278,36.2425z"/>
		<path d="M48.9774,55.8874L49.9998,61h6l-1.9941-6.647C52.5468,54.9979,50.8815,55.5205,48.9774,55.8874z"/>
		<path d="M27.9998,61h6l1.0225-5.1126c-1.9041-0.3669-3.5695-0.8895-5.0284-1.5344L27.9998,61z"/>
		<path d="M61.3182,12.9727c-1.4688-2.8999-4.7461-9.1636-5.9922-9.8658C53.7459,2.2173,47.1356,2,41.9998,2
			c-5.1367,0-11.7461,0.2173-13.3262,1.1069c-1.247,0.7022-4.5234,6.9659-5.9922,9.8658c-0.4882,0.9653-0.7197,2.0512-0.6767,3.1552
			l0.8955,22.9971C23.408,52.1899,34.5916,54,41.9998,54s18.5918-1.8101,19.0996-14.875l0.8955-22.9971
			C62.038,15.0239,61.8065,13.938,61.3182,12.9727z M41.9998,6.85c1.7401,0,3.15,1.4104,3.15,3.15c0,1.7395-1.4099,3.15-3.15,3.15
			c-1.7401,0-3.15-1.4105-3.15-3.15C38.8499,8.2604,40.2598,6.85,41.9998,6.85z M32.9998,43.15c-1.7401,0-3.15-1.4105-3.15-3.15
			c0-1.7396,1.4099-3.15,3.15-3.15c1.7401,0,3.15,1.4104,3.15,3.15C36.1498,41.7395,34.7399,43.15,32.9998,43.15z M50.9998,43.15
			c-1.7401,0-3.15-1.4105-3.15-3.15c0-1.7396,1.4099-3.15,3.15-3.15c1.7401,0,3.15,1.4104,3.15,3.15
			C54.1498,41.7395,52.7399,43.15,50.9998,43.15z M56.6014,17.2939l-3.3848,11C53.0878,28.7139,52.7,29,52.2615,29H31.7382
			c-0.4385,0-0.8262-0.2861-0.9551-0.7061l-3.3848-11C27.2,16.6509,27.6815,16,28.3533,16h27.293
			C56.3182,16,56.7996,16.6509,56.6014,17.2939z"/>
	</g>
</g>
</svg>
